X:1
T:Aberdeenshire Volunteers, The
R:Strathspey
C:J. Scott Skinner
S:MacDonald - Skye Collection
N:pg.53
M:C
L:1/8
K:D
A,|D<D F>B A<F F>A|B/c/d/c/ B/A/G/F/ G/F/E/D/ C<E|D<D F>B A<F F>A|
(3Bec (3ABc (3dAG (3FGE|D<D F>B A<F F>A|B/c/d/c/ B/A/G/F/ G/F/E/D/ C<E|
D<D F>B A<F F>A|(3Bec (3ABc (d2d)||A|d<d d>g f/g/a/f/ d<f|gd c<A A>c|
d<d d>g f/g/a/f/ d>f|(3efg (3ABc d2 d>A|d<d d>g f/g/a/f/ d<f|gd c<A A>c|
(3dfd (3cec (3BdB (3AGF|(3GAB (3ABc [F2d2] [Fd]||
